
; generated by PrusaSlicer 2.2.0+linux-x64 on 2020-12-08 at 22:52:41 UTC

;

; external perimeters extrusion width = 0.45mm
; perimeters extrusion width = 0.45mm
; infill extrusion width = 0.45mm
; solid infill extrusion width = 0.45mm
; top infill extrusion width = 0.45mm
; first layer extrusion width = 0.42mm

M201 X500 Y500 Z100 E5000 ; sets maximum accelerations, mm/sec^2
M203 X500 Y500 Z10 E60 ; sets maximum feedrates, mm/sec
M204 P500 R1000 T500 ; sets acceleration (P, T) and retract acceleration (R), mm/sec^2
M205 X8.00 Y8.00 Z0.40 E5.00 ; sets the jerk limits, mm/sec
M205 S0 T0 ; sets the minimum extruding and travel feed rate, mm/sec
M107 ; disable fan
G90 ; use absolute coordinates
M83 ; extruder relative mode
M104 S215 ; set extruder temp
M140 S60 ; set bed temp
M190 S60 ; wait for bed temp
M109 S215 ; wait for extruder temp
G28 ; home all
G1 Z2 F240
G1 X2 Y10 F3000
G1 Z0.28 F240
G92 E0.0
G1 Y190 E15.0 F1500.0 ; intro line
G1 X2.3 F5000
G1 Y10 E30 F1200.0 ; intro line
G92 E0.0
M412 S0
G21 ; set units to millimeters
G90 ; use absolute coordinates
M83 ; use relative distances for extrusion
; Filament gcode
;BEFORE_LAYER_CHANGE
;0.2
G1 E-5.00000 F3600.00000 ; retract
G1 Z0.200 F10200.000 ; move to next layer (0)
;AFTER_LAYER_CHANGE
;0.2
G1 X118.886 Y115.487 ; move to first skirt point
G1 E5.00000 F2400.00000 ; unretract
G1 F1383
G1 X117.640 Y116.204 E0.04507 ; skirt
G1 X112.085 Y117.718 E0.18054 ; skirt
G1 X111.496 Y117.813 E0.01872 ; skirt
G1 X109.668 Y117.916 E0.05739 ; skirt
G1 X107.567 Y117.649 E0.06642 ; skirt
G1 X102.354 Y116.244 E0.16928 ; skirt
G1 X101.781 Y115.976 E0.01983 ; skirt
G1 X100.792 Y115.289 E0.03775 ; skirt
G1 X100.308 Y114.683 E0.02434 ; skirt
G1 X96.432 Y107.898 E0.24499 ; skirt
G1 X93.817 Y101.728 E0.21012 ; skirt
G1 X93.631 Y100.974 E0.02434 ; skirt
G1 X93.629 Y100.438 E0.01681 ; skirt
G1 X93.732 Y99.907 E0.01694 ; skirt
G1 X93.937 Y99.407 E0.01694 ; skirt
G1 X94.236 Y98.957 E0.01694 ; skirt
G1 X94.616 Y98.574 E0.01694 ; skirt
G1 X95.065 Y98.272 E0.01694 ; skirt
G1 X95.563 Y98.064 E0.01694 ; skirt
G1 X96.093 Y97.956 E0.01694 ; skirt
G1 X123.386 Y97.942 E0.85574 ; skirt
G1 X123.995 Y98.012 E0.01924 ; skirt
G1 X124.578 Y98.216 E0.01937 ; skirt
G1 X125.098 Y98.543 E0.01924 ; skirt
G1 X125.532 Y98.976 E0.01924 ; skirt
G1 X125.862 Y99.499 E0.01937 ; skirt
G1 X126.065 Y100.078 E0.01924 ; skirt
G1 X126.136 Y100.688 E0.01924 ; skirt
G1 X126.069 Y101.298 E0.01924 ; skirt
G1 X123.533 Y107.990 E0.22438 ; skirt
G1 X119.680 Y114.550 E0.23854 ; skirt
G1 X118.925 Y115.441 E0.03662 ; skirt
G1 E-3.50000 F3600.00000 ; retract
G1 F8160.000
G1 X117.640 Y116.204 E-0.62614 ; wipe and retract
G1 X115.802 Y116.705 E-0.79886 ; wipe and retract
G1 E-0.07500 F3600.00000 ; retract
G1 X94.104 Y99.983 F10200.000 ; move to first skirt point
G1 E5.00000 F2400.00000 ; unretract
G1 F1383
G1 X94.549 Y99.170 E0.02907 ; skirt
G1 X95.272 Y98.589 E0.02907 ; skirt
G1 X96.162 Y98.329 E0.02907 ; skirt
G1 X123.385 Y98.319 E0.85357 ; skirt
G1 X123.918 Y98.381 E0.01680 ; skirt
G1 X124.426 Y98.561 E0.01692 ; skirt
G1 X124.881 Y98.852 E0.01692 ; skirt
G1 X125.258 Y99.238 E0.01692 ; skirt
G1 X125.537 Y99.695 E0.01680 ; skirt
G1 X125.708 Y100.208 E0.01692 ; skirt
G1 X125.758 Y100.745 E0.01692 ; skirt
G1 X125.686 Y101.280 E0.01692 ; skirt
G1 X123.191 Y107.831 E0.21979 ; skirt
G1 X119.292 Y114.457 E0.24104 ; skirt
G1 X118.899 Y114.960 E0.02004 ; skirt
G1 X118.524 Y115.289 E0.01562 ; skirt
G1 X117.747 Y115.745 E0.02825 ; skirt
G1 X117.116 Y115.996 E0.02129 ; skirt
G1 X111.927 Y117.369 E0.16831 ; skirt
G1 X110.525 Y117.525 E0.04423 ; skirt
G1 X109.488 Y117.527 E0.03251 ; skirt
G1 X107.729 Y117.298 E0.05562 ; skirt
G1 X102.643 Y115.939 E0.16505 ; skirt
G1 X102.003 Y115.670 E0.02176 ; skirt
G1 X100.994 Y114.960 E0.03871 ; skirt
G1 X100.628 Y114.484 E0.01882 ; skirt
G1 X96.767 Y107.723 E0.24410 ; skirt
G1 X94.167 Y101.587 E0.20895 ; skirt
G1 X94.003 Y100.905 E0.02201 ; skirt
G1 X94.097 Y100.043 E0.02719 ; skirt
G1 E-3.50000 F3600.00000 ; retract
G1 F8160.000
G1 X94.549 Y99.170 E-0.41196 ; wipe and retract
G1 X95.272 Y98.589 E-0.38862 ; wipe and retract
G1 X96.162 Y98.329 E-0.38862 ; wipe and retract
G1 X96.724 Y98.329 E-0.23580 ; wipe and retract
G1 E-0.07500 F3600.00000 ; retract
G1 X97.576 Y101.284 F10200.000 ; move to first perimeter point
G1 E5.00000 F2400.00000 ; unretract
G1 F1383
G1 X122.497 Y101.284 E0.78135 ; perimeter
G1 X121.535 Y103.065 E0.06346 ; perimeter
G1 X121.400 Y103.503 E0.01440 ; perimeter
G1 X121.357 Y103.879 E0.01187 ; perimeter
G1 X121.165 Y104.218 E0.01219 ; perimeter
G1 X121.128 Y104.551 E0.01051 ; perimeter
G1 X120.742 Y105.408 E0.02947 ; perimeter
G1 X120.594 Y105.923 E0.01680 ; perimeter
G1 X120.472 Y106.230 E0.01037 ; perimeter
G1 X120.481 Y106.339 E0.00341 ; perimeter
G1 X120.293 Y106.616 E0.01051 ; perimeter
G1 X120.034 Y106.702 E0.00855 ; perimeter
G1 X119.822 Y107.008 E0.01168 ; perimeter
G1 X119.629 Y107.183 E0.00814 ; perimeter
G1 X119.474 Y107.448 E0.00964 ; perimeter
G1 X119.312 Y107.589 E0.00674 ; perimeter
G1 X119.239 Y107.775 E0.00626 ; perimeter
G1 X118.993 Y108.083 E0.01239 ; perimeter
G1 X118.844 Y108.426 E0.01170 ; perimeter
G1 X118.728 Y108.631 E0.00740 ; perimeter
G1 X118.548 Y108.806 E0.00786 ; perimeter
G1 X118.397 Y109.228 E0.01406 ; perimeter
G1 X118.404 Y109.411 E0.00576 ; perimeter
G1 X118.084 Y109.755 E0.01474 ; perimeter
G1 X118.167 Y110.016 E0.00858 ; perimeter
G1 X118.108 Y110.151 E0.00463 ; perimeter
G1 X117.833 Y110.298 E0.00978 ; perimeter
G1 X117.808 Y110.596 E0.00937 ; perimeter
G1 X117.596 Y110.925 E0.01229 ; perimeter
G1 X117.547 Y111.441 E0.01626 ; perimeter
G1 X117.488 Y111.520 E0.00308 ; perimeter
G1 X117.293 Y111.894 E0.01322 ; perimeter
G1 X117.168 Y112.028 E0.00574 ; perimeter
G1 X116.938 Y112.483 E0.01600 ; perimeter
G1 X116.853 Y112.588 E0.00422 ; perimeter
G1 X116.749 Y112.798 E0.00736 ; perimeter
G1 X116.581 Y112.776 E0.00529 ; perimeter
G1 X116.511 Y112.877 E0.00386 ; perimeter
G1 X116.253 Y112.694 E0.00991 ; perimeter
G1 X116.057 Y113.043 E0.01253 ; perimeter
G1 X116.035 Y113.028 E0.00082 ; perimeter
G1 X115.624 Y113.252 E0.01469 ; perimeter
G1 X115.531 Y113.249 E0.00291 ; perimeter
G1 X114.790 Y113.363 E0.02350 ; perimeter
G1 X114.455 Y113.370 E0.01051 ; perimeter
G1 X114.227 Y113.315 E0.00737 ; perimeter
G1 X113.906 Y113.306 E0.01007 ; perimeter
G1 X113.390 Y113.471 E0.01697 ; perimeter
G1 X113.277 Y113.530 E0.00399 ; perimeter
G1 X112.909 Y113.659 E0.01222 ; perimeter
G1 X112.544 Y113.735 E0.01169 ; perimeter
G1 X112.249 Y113.849 E0.00994 ; perimeter
G1 X111.755 Y114.203 E0.01904 ; perimeter
G1 X111.537 Y114.219 E0.00687 ; perimeter
G1 X111.236 Y114.393 E0.01088 ; perimeter
G1 X111.177 Y114.481 E0.00331 ; perimeter
G1 X110.700 Y114.516 E0.01502 ; perimeter
G1 X110.253 Y114.515 E0.01399 ; perimeter
G1 X110.115 Y114.554 E0.00451 ; perimeter
G1 X109.907 Y114.573 E0.00653 ; perimeter
G1 X109.557 Y114.552 E0.01102 ; perimeter
G1 X109.342 Y114.519 E0.00680 ; perimeter
G1 X109.153 Y114.310 E0.00884 ; perimeter
G1 X108.822 Y114.330 E0.01038 ; perimeter
G1 X108.400 Y113.855 E0.01994 ; perimeter
G1 X108.184 Y114.160 E0.01173 ; perimeter
G1 X107.943 Y113.952 E0.00997 ; perimeter
G1 X107.682 Y113.795 E0.00957 ; perimeter
G1 X106.907 Y113.608 E0.02498 ; perimeter
G1 X106.410 Y113.399 E0.01690 ; perimeter
G1 X105.917 Y113.287 E0.01587 ; perimeter
G1 X105.571 Y113.365 E0.01111 ; perimeter
G1 X105.350 Y113.370 E0.00692 ; perimeter
G1 X104.339 Y113.232 E0.03200 ; perimeter
G1 X104.115 Y113.057 E0.00893 ; perimeter
G1 X103.920 Y113.130 E0.00653 ; perimeter
G1 X103.504 Y112.896 E0.01496 ; perimeter
G1 X103.381 Y112.959 E0.00432 ; perimeter
G1 X103.265 Y112.825 E0.00558 ; perimeter
G1 X103.176 Y112.818 E0.00278 ; perimeter
G1 X103.110 Y112.528 E0.00934 ; perimeter
G1 X102.849 Y112.055 E0.01692 ; perimeter
G1 X102.786 Y111.975 E0.00320 ; perimeter
G1 X102.730 Y111.830 E0.00489 ; perimeter
G1 X102.599 Y111.683 E0.00616 ; perimeter
G1 X102.467 Y111.458 E0.00818 ; perimeter
G1 X102.473 Y111.406 E0.00164 ; perimeter
G1 X102.420 Y111.238 E0.00553 ; perimeter
G1 X102.380 Y110.834 E0.01273 ; perimeter
G1 X101.825 Y110.080 E0.02936 ; perimeter
G1 X101.926 Y109.735 E0.01126 ; perimeter
G1 X101.595 Y109.403 E0.01472 ; perimeter
G1 X101.601 Y109.221 E0.00571 ; perimeter
G1 X101.469 Y108.835 E0.01279 ; perimeter
G1 X101.296 Y108.662 E0.00766 ; perimeter
G1 X101.146 Y108.402 E0.00942 ; perimeter
G1 X101.043 Y108.130 E0.00912 ; perimeter
G1 X100.772 Y107.791 E0.01361 ; perimeter
G1 X100.696 Y107.585 E0.00689 ; perimeter
G1 X100.542 Y107.454 E0.00635 ; perimeter
G1 X100.423 Y107.250 E0.00740 ; perimeter
G1 X100.205 Y107.023 E0.00985 ; perimeter
G1 X99.936 Y106.655 E0.01433 ; perimeter
G1 X99.708 Y106.602 E0.00733 ; perimeter
G1 X99.594 Y106.409 E0.00701 ; perimeter
G1 X99.522 Y106.325 E0.00348 ; perimeter
G1 X99.529 Y106.208 E0.00370 ; perimeter
G1 X99.398 Y105.900 E0.01047 ; perimeter
G1 X99.202 Y105.265 E0.02085 ; perimeter
G1 X98.920 Y104.681 E0.02034 ; perimeter
G1 X98.874 Y104.552 E0.00429 ; perimeter
G1 X98.872 Y104.361 E0.00599 ; perimeter
G1 X98.766 Y104.071 E0.00968 ; perimeter
G1 X98.636 Y103.872 E0.00746 ; perimeter
G1 X98.611 Y103.554 E0.01001 ; perimeter
G1 X98.493 Y103.110 E0.01439 ; perimeter
G1 X97.861 Y101.741 E0.04728 ; perimeter
G1 X97.610 Y101.333 E0.01500 ; perimeter
G1 E-3.50000 F3600.00000 ; retract
G1 F8160.000
G1 X101.010 Y101.327 E-1.42500 ; wipe and retract
G1 E-0.07500 F3600.00000 ; retract
G1 X118.510 Y109.851 F10200.000 ; move to first perimeter point
G1 E5.00000 F2400.00000 ; unretract
G1 F1383
G1 X118.593 Y110.109 E0.00851 ; perimeter
G1 X118.486 Y110.226 E0.00497 ; perimeter
G1 X118.403 Y110.421 E0.00664 ; perimeter
G1 X118.192 Y110.534 E0.00753 ; perimeter
G1 X118.176 Y110.721 E0.00588 ; perimeter
G1 X117.966 Y111.047 E0.01217 ; perimeter
G1 X117.945 Y111.360 E0.00982 ; perimeter
G1 X117.901 Y111.597 E0.00756 ; perimeter
G1 X117.808 Y111.722 E0.00488 ; perimeter
G1 X117.604 Y112.113 E0.01382 ; perimeter
G1 X117.481 Y112.246 E0.00568 ; perimeter
G1 X117.256 Y112.689 E0.01560 ; perimeter
G1 X117.172 Y112.793 E0.00417 ; perimeter
G1 X117.088 Y112.963 E0.00596 ; perimeter
G1 X117.028 Y113.151 E0.00620 ; perimeter
G1 X116.909 Y113.167 E0.00375 ; perimeter
G1 X116.883 Y113.196 E0.00124 ; perimeter
G1 X116.759 Y113.180 E0.00392 ; perimeter
G1 X116.603 Y113.404 E0.00857 ; perimeter
G1 X116.376 Y113.244 E0.00870 ; perimeter
G1 X116.192 Y113.571 E0.01178 ; perimeter
G1 X116.170 Y113.576 E0.00070 ; perimeter
G1 X116.013 Y113.469 E0.00595 ; perimeter
G1 X115.713 Y113.633 E0.01071 ; perimeter
G1 X115.553 Y113.627 E0.00504 ; perimeter
G1 X114.823 Y113.740 E0.02315 ; perimeter
G1 X114.415 Y113.748 E0.01281 ; perimeter
G1 X114.177 Y113.691 E0.00766 ; perimeter
G1 X113.959 Y113.685 E0.00683 ; perimeter
G1 X113.536 Y113.820 E0.01392 ; perimeter
G1 X113.428 Y113.877 E0.00384 ; perimeter
G1 X113.010 Y114.023 E0.01386 ; perimeter
G1 X112.651 Y114.098 E0.01150 ; perimeter
G1 X112.429 Y114.183 E0.00747 ; perimeter
G1 X111.944 Y114.531 E0.01870 ; perimeter
G1 X111.837 Y114.579 E0.00370 ; perimeter
G1 X111.648 Y114.590 E0.00592 ; perimeter
G1 X111.500 Y114.676 E0.00536 ; perimeter
G1 X111.407 Y114.815 E0.00524 ; perimeter
G1 X111.335 Y114.847 E0.00248 ; perimeter
G1 X110.713 Y114.893 E0.01956 ; perimeter
G1 X110.305 Y114.892 E0.01279 ; perimeter
G1 X110.184 Y114.926 E0.00395 ; perimeter
G1 X109.914 Y114.951 E0.00850 ; perimeter
G1 X109.516 Y114.928 E0.01247 ; perimeter
G1 X109.152 Y114.871 E0.01156 ; perimeter
G1 X108.995 Y114.697 E0.00735 ; perimeter
G1 X108.792 Y114.709 E0.00636 ; perimeter
G1 X108.708 Y114.768 E0.00322 ; perimeter
G1 X108.434 Y114.460 E0.01293 ; perimeter
G1 X108.220 Y114.755 E0.01143 ; perimeter
G1 X108.184 Y114.735 E0.00128 ; perimeter
G1 X107.968 Y114.472 E0.01068 ; perimeter
G1 X107.721 Y114.258 E0.01023 ; perimeter
G1 X107.537 Y114.148 E0.00674 ; perimeter
G1 X106.789 Y113.967 E0.02412 ; perimeter
G1 X106.294 Y113.760 E0.01682 ; perimeter
G1 X105.916 Y113.673 E0.01217 ; perimeter
G1 X105.618 Y113.740 E0.00958 ; perimeter
G1 X105.341 Y113.748 E0.00869 ; perimeter
G1 X104.359 Y113.616 E0.03105 ; perimeter
G1 X104.253 Y113.644 E0.00344 ; perimeter
G1 X104.049 Y113.484 E0.00812 ; perimeter
G1 X103.841 Y113.562 E0.00698 ; perimeter
G1 X103.776 Y113.540 E0.00215 ; perimeter
G1 X103.701 Y113.439 E0.00393 ; perimeter
G1 X103.496 Y113.324 E0.00738 ; perimeter
G1 X103.305 Y113.423 E0.00674 ; perimeter
G1 X103.258 Y113.393 E0.00174 ; perimeter
G1 X103.082 Y113.190 E0.00843 ; perimeter
G1 X102.975 Y113.182 E0.00338 ; perimeter
G1 X102.863 Y113.141 E0.00374 ; perimeter
G1 X102.754 Y112.664 E0.01534 ; perimeter
G1 X102.535 Y112.265 E0.01426 ; perimeter
G1 X102.455 Y112.165 E0.00402 ; perimeter
G1 X102.402 Y112.029 E0.00457 ; perimeter
G1 X102.287 Y111.899 E0.00545 ; perimeter
G1 X102.193 Y111.720 E0.00636 ; perimeter
G1 X102.093 Y111.591 E0.00509 ; perimeter
G1 X102.079 Y111.538 E0.00173 ; perimeter
G1 X102.089 Y111.444 E0.00296 ; perimeter
G1 X102.048 Y111.314 E0.00429 ; perimeter
G1 X102.015 Y110.974 E0.01070 ; perimeter
G1 X101.411 Y110.153 E0.03196 ; perimeter
G1 X101.502 Y109.844 E0.01011 ; perimeter
G1 X101.212 Y109.553 E0.01286 ; perimeter
G1 X101.222 Y109.277 E0.00867 ; perimeter
G1 X101.141 Y109.040 E0.00786 ; perimeter
G1 X100.995 Y108.894 E0.00648 ; perimeter
G1 X100.804 Y108.564 E0.01195 ; perimeter
G1 X100.712 Y108.319 E0.00821 ; perimeter
G1 X100.439 Y107.979 E0.01367 ; perimeter
G1 X100.376 Y107.808 E0.00572 ; perimeter
G1 X100.248 Y107.699 E0.00525 ; perimeter
G1 X100.120 Y107.479 E0.00800 ; perimeter
G1 X99.916 Y107.266 E0.00923 ; perimeter
G1 X99.714 Y106.990 E0.01073 ; perimeter
G1 X99.462 Y106.928 E0.00813 ; perimeter
G1 X99.287 Y106.630 E0.01083 ; perimeter
G1 X99.136 Y106.456 E0.00723 ; perimeter
G1 X99.147 Y106.273 E0.00573 ; perimeter
G1 X99.044 Y106.030 E0.00828 ; perimeter
G1 X98.850 Y105.403 E0.02058 ; perimeter
G1 X98.572 Y104.827 E0.02007 ; perimeter
G1 X98.498 Y104.619 E0.00691 ; perimeter
G1 X98.496 Y104.429 E0.00596 ; perimeter
G1 X98.427 Y104.241 E0.00627 ; perimeter
G1 X98.268 Y103.998 E0.00913 ; perimeter
G1 X98.238 Y103.617 E0.01196 ; perimeter
G1 X98.136 Y103.234 E0.01243 ; perimeter
G1 X97.528 Y101.918 E0.04546 ; perimeter
G1 X97.061 Y101.194 E0.02701 ; perimeter
G1 X96.820 Y100.907 E0.01175 ; perimeter
G1 X123.066 Y100.907 E0.82293 ; perimeter
G1 X122.870 Y101.380 E0.01606 ; perimeter
G1 X122.719 Y101.683 E0.01061 ; perimeter
G1 X121.884 Y103.212 E0.05464 ; perimeter
G1 X121.770 Y103.581 E0.01211 ; perimeter
G1 X121.723 Y103.998 E0.01316 ; perimeter
G1 X121.532 Y104.336 E0.01217 ; perimeter
G1 X121.496 Y104.652 E0.00996 ; perimeter
G1 X121.097 Y105.538 E0.03049 ; perimeter
G1 X120.951 Y106.045 E0.01652 ; perimeter
G1 X120.855 Y106.288 E0.00820 ; perimeter
G1 X120.868 Y106.458 E0.00534 ; perimeter
G1 X120.698 Y106.671 E0.00858 ; perimeter
G1 X120.546 Y106.930 E0.00940 ; perimeter
G1 X120.272 Y107.021 E0.00904 ; perimeter
G1 X120.107 Y107.259 E0.00908 ; perimeter
G1 X119.926 Y107.423 E0.00768 ; perimeter
G1 X119.768 Y107.693 E0.00978 ; perimeter
G1 X119.629 Y107.813 E0.00576 ; perimeter
G1 X119.570 Y107.965 E0.00513 ; perimeter
G1 X119.319 Y108.279 E0.01261 ; perimeter
G1 X119.183 Y108.591 E0.01067 ; perimeter
G1 X119.071 Y108.797 E0.00736 ; perimeter
G1 X119.020 Y108.874 E0.00286 ; perimeter
G1 X118.873 Y109.016 E0.00641 ; perimeter
G1 X118.777 Y109.286 E0.00901 ; perimeter
G1 X118.787 Y109.554 E0.00840 ; perimeter
G1 X118.551 Y109.807 E0.01084 ; perimeter
G1 X118.284 Y110.000 F10200.000 ; move inwards before travel
G1 E-3.50000 F3600.00000 ; retract
G1 F8160.000
G1 X118.593 Y110.109 E-0.12797 ; wipe and retract
G1 X118.486 Y110.226 E-0.06640 ; wipe and retract
G1 X118.403 Y110.421 E-0.08878 ; wipe and retract
G1 X118.192 Y110.534 E-0.10060 ; wipe and retract
G1 X118.176 Y110.721 E-0.07866 ; wipe and retract
G1 X117.966 Y111.047 E-0.16271 ; wipe and retract
G1 X117.945 Y111.360 E-0.13133 ; wipe and retract
G1 X117.901 Y111.597 E-0.10111 ; wipe and retract
G1 X117.808 Y111.722 E-0.06530 ; wipe and retract
