
; generated by PrusaSlicer 2.2.0+linux-x64 on 2020-12-09 at 00:14:50 UTC

;

; external perimeters extrusion width = 0.45mm
; perimeters extrusion width = 0.45mm
; infill extrusion width = 0.45mm
; solid infill extrusion width = 0.45mm
; top infill extrusion width = 0.45mm
; first layer extrusion width = 0.42mm

M201 X500 Y500 Z100 E5000 ; sets maximum accelerations, mm/sec^2
M203 X500 Y500 Z10 E60 ; sets maximum feedrates, mm/sec
M204 P500 R1000 T500 ; sets acceleration (P, T) and retract acceleration (R), mm/sec^2
M205 X8.00 Y8.00 Z0.40 E5.00 ; sets the jerk limits, mm/sec
M205 S0 T0 ; sets the minimum extruding and travel feed rate, mm/sec
M107 ; disable fan
G90 ; use absolute coordinates
M83 ; extruder relative mode
M104 S215 ; set extruder temp
M140 S60 ; set bed temp
M190 S60 ; wait for bed temp
M109 S215 ; wait for extruder temp
G28 ; home all
G1 Z2 F240
G1 X2 Y10 F3000
G1 Z0.28 F240
G92 E0.0
G1 Y190 E15.0 F1500.0 ; intro line
G1 X2.3 F5000
G1 Y10 E30 F1200.0 ; intro line
G92 E0.0
M412 S0
G21 ; set units to millimeters
G90 ; use absolute coordinates
M83 ; use relative distances for extrusion
; Filament gcode
;BEFORE_LAYER_CHANGE
;0.2
G1 E-5.00000 F3600.00000 ; retract
G1 Z0.200 F10200.000 ; move to next layer (0)
;AFTER_LAYER_CHANGE
;0.2
G1 X83.486 Y94.057 ; move to first skirt point
G1 E5.00000 F2400.00000 ; unretract
G1 F1800.000
G1 X83.829 Y93.151 E0.03036 ; skirt
G1 X84.179 Y92.721 E0.01740 ; skirt
G1 X84.619 Y92.384 E0.01740 ; skirt
G1 X85.126 Y92.158 E0.01740 ; skirt
G1 X85.671 Y92.055 E0.01740 ; skirt
G1 X134.153 Y92.050 E1.52010 ; skirt
G1 X134.991 Y92.204 E0.02673 ; skirt
G1 X135.718 Y92.641 E0.02661 ; skirt
G1 X136.245 Y93.306 E0.02661 ; skirt
G1 X136.505 Y94.114 E0.02661 ; skirt
G1 X136.546 Y95.403 E0.04045 ; skirt
G1 X136.460 Y96.010 E0.01921 ; skirt
G1 X135.728 Y98.722 E0.08808 ; skirt
G1 X135.191 Y99.905 E0.04071 ; skirt
G1 X128.738 Y110.476 E0.38833 ; skirt
G1 X127.360 Y112.468 E0.07594 ; skirt
G1 X120.817 Y119.076 E0.29158 ; skirt
G1 X120.149 Y119.503 E0.02484 ; skirt
G1 X119.382 Y119.686 E0.02473 ; skirt
G1 X117.525 Y119.805 E0.05837 ; skirt
G1 X102.670 Y119.785 E0.46576 ; skirt
G1 X100.873 Y119.507 E0.05700 ; skirt
G1 X99.241 Y118.765 E0.05621 ; skirt
G1 X98.016 Y117.878 E0.04744 ; skirt
G1 X92.771 Y112.662 E0.23193 ; skirt
G1 X91.612 Y111.117 E0.06055 ; skirt
G1 X84.809 Y99.983 E0.40910 ; skirt
G1 X84.110 Y98.299 E0.05717 ; skirt
G1 X83.452 Y95.542 E0.08888 ; skirt
G1 X83.485 Y94.117 E0.04469 ; skirt
G1 E-3.50000 F3600.00000 ; retract
G1 F8160.000
G1 X83.829 Y93.151 E-0.42963 ; wipe and retract
G1 X84.179 Y92.721 E-0.23255 ; wipe and retract
G1 X84.619 Y92.384 E-0.23255 ; wipe and retract
G1 X85.126 Y92.158 E-0.23255 ; wipe and retract
G1 X85.671 Y92.055 E-0.23255 ; wipe and retract
G1 X85.827 Y92.055 E-0.06518 ; wipe and retract
G1 E-0.07500 F3600.00000 ; retract
G1 X86.576 Y95.014 F10200.000 ; move to first perimeter point
G1 E5.00000 F2400.00000 ; unretract
G1 F1800.000
G1 X133.435 Y95.014 E1.46923 ; perimeter
G1 X133.463 Y95.476 E0.01453 ; perimeter
G1 X133.457 Y95.532 E0.00177 ; perimeter
G1 X133.352 Y95.779 E0.00841 ; perimeter
G1 X133.166 Y96.047 E0.01022 ; perimeter
G1 X133.025 Y96.370 E0.01104 ; perimeter
G1 X132.827 Y97.056 E0.02242 ; perimeter
G1 X132.843 Y97.483 E0.01338 ; perimeter
G1 X132.824 Y97.845 E0.01137 ; perimeter
G1 X132.464 Y98.213 E0.01616 ; perimeter
G1 X132.276 Y98.803 E0.01939 ; perimeter
G1 X132.072 Y99.048 E0.01001 ; perimeter
G1 X131.135 Y100.311 E0.04931 ; perimeter
G1 X131.008 Y100.632 E0.01083 ; perimeter
G1 X130.662 Y100.857 E0.01293 ; perimeter
G1 X130.527 Y101.106 E0.00887 ; perimeter
G1 X130.291 Y101.169 E0.00766 ; perimeter
G1 X130.048 Y101.364 E0.00977 ; perimeter
G1 X129.766 Y101.687 E0.01345 ; perimeter
G1 X129.623 Y101.915 E0.00844 ; perimeter
G1 X129.456 Y102.088 E0.00754 ; perimeter
G1 X129.343 Y102.261 E0.00650 ; perimeter
G1 X129.143 Y102.422 E0.00805 ; perimeter
G1 X128.983 Y102.788 E0.01250 ; perimeter
G1 X128.572 Y102.875 E0.01318 ; perimeter
G1 X128.394 Y103.435 E0.01843 ; perimeter
G1 X128.415 Y103.728 E0.00921 ; perimeter
G1 X128.454 Y103.823 E0.00322 ; perimeter
G1 X128.277 Y104.045 E0.00888 ; perimeter
G1 X128.072 Y104.197 E0.00801 ; perimeter
G1 X128.016 Y104.513 E0.01006 ; perimeter
G1 X127.591 Y105.357 E0.02962 ; perimeter
G1 X127.432 Y105.619 E0.00962 ; perimeter
G1 X127.362 Y105.830 E0.00696 ; perimeter
G1 X127.112 Y106.328 E0.01746 ; perimeter
G1 X127.008 Y106.580 E0.00856 ; perimeter
G1 X126.691 Y106.702 E0.01065 ; perimeter
G1 X126.705 Y107.250 E0.01716 ; perimeter
G1 X126.666 Y107.338 E0.00303 ; perimeter
G1 X126.343 Y107.614 E0.01331 ; perimeter
G1 X126.353 Y107.840 E0.00709 ; perimeter
G1 X126.108 Y107.968 E0.00867 ; perimeter
G1 X126.226 Y108.489 E0.01676 ; perimeter
G1 X126.077 Y108.833 E0.01176 ; perimeter
G1 X126.101 Y109.012 E0.00563 ; perimeter
G1 X125.989 Y109.121 E0.00490 ; perimeter
G1 X125.785 Y109.468 E0.01262 ; perimeter
G1 X125.746 Y109.606 E0.00451 ; perimeter
G1 X125.662 Y109.729 E0.00467 ; perimeter
G1 X125.444 Y109.954 E0.00983 ; perimeter
G1 X125.216 Y110.298 E0.01292 ; perimeter
G1 X125.011 Y110.532 E0.00976 ; perimeter
G1 X124.927 Y110.694 E0.00573 ; perimeter
G1 X124.747 Y110.880 E0.00811 ; perimeter
G1 X124.593 Y110.860 E0.00485 ; perimeter
G1 X124.139 Y110.912 E0.01434 ; perimeter
G1 X123.812 Y111.390 E0.01817 ; perimeter
G1 X123.820 Y111.587 E0.00616 ; perimeter
G1 X123.782 Y111.708 E0.00398 ; perimeter
G1 X123.751 Y111.745 E0.00152 ; perimeter
G1 X123.518 Y111.917 E0.00910 ; perimeter
G1 X123.340 Y111.972 E0.00582 ; perimeter
G1 X122.800 Y112.207 E0.01848 ; perimeter
G1 X122.624 Y112.774 E0.01862 ; perimeter
G1 X121.757 Y113.605 E0.03766 ; perimeter
G1 X121.593 Y113.814 E0.00834 ; perimeter
G1 X121.288 Y114.001 E0.01119 ; perimeter
G1 X120.782 Y114.495 E0.02218 ; perimeter
G1 X120.585 Y114.653 E0.00792 ; perimeter
G1 X120.434 Y114.670 E0.00478 ; perimeter
G1 X120.182 Y114.837 E0.00948 ; perimeter
G1 X119.824 Y115.203 E0.01605 ; perimeter
G1 X119.569 Y115.370 E0.00955 ; perimeter
G1 X119.505 Y115.474 E0.00381 ; perimeter
G1 X119.366 Y115.497 E0.00444 ; perimeter
G1 X118.768 Y115.826 E0.02138 ; perimeter
G1 X118.833 Y116.032 E0.00677 ; perimeter
G1 X118.550 Y116.212 E0.01050 ; perimeter
G1 X118.174 Y116.286 E0.01201 ; perimeter
G1 X118.168 Y116.374 E0.00276 ; perimeter
G1 X117.977 Y116.372 E0.00597 ; perimeter
G1 X117.789 Y116.271 E0.00669 ; perimeter
G1 X117.503 Y116.342 E0.00923 ; perimeter
G1 X117.076 Y116.273 E0.01359 ; perimeter
G1 X116.941 Y116.367 E0.00514 ; perimeter
G1 X116.719 Y116.129 E0.01021 ; perimeter
G1 X116.575 Y116.228 E0.00546 ; perimeter
G1 X116.321 Y116.110 E0.00880 ; perimeter
G1 X115.652 Y116.109 E0.02097 ; perimeter
G1 X115.399 Y116.079 E0.00801 ; perimeter
G1 X114.637 Y116.084 E0.02389 ; perimeter
G1 X114.286 Y116.020 E0.01119 ; perimeter
G1 X114.085 Y116.045 E0.00635 ; perimeter
G1 X113.433 Y116.031 E0.02043 ; perimeter
G1 X112.775 Y115.943 E0.02083 ; perimeter
G1 X112.567 Y115.792 E0.00804 ; perimeter
G1 X111.996 Y115.927 E0.01842 ; perimeter
G1 X111.306 Y115.870 E0.02169 ; perimeter
G1 X109.424 Y115.885 E0.05902 ; perimeter
G1 X108.497 Y115.856 E0.02908 ; perimeter
G1 X108.296 Y115.910 E0.00653 ; perimeter
G1 X108.169 Y115.916 E0.00399 ; perimeter
G1 X107.700 Y115.845 E0.01486 ; perimeter
G1 X107.314 Y115.930 E0.01240 ; perimeter
G1 X106.159 Y116.053 E0.03642 ; perimeter
G1 X105.690 Y115.912 E0.01533 ; perimeter
G1 X105.214 Y116.077 E0.01580 ; perimeter
G1 X104.542 Y116.081 E0.02108 ; perimeter
G1 X104.427 Y116.116 E0.00375 ; perimeter
G1 X103.572 Y116.104 E0.02682 ; perimeter
G1 X103.279 Y116.346 E0.01192 ; perimeter
G1 X102.212 Y116.072 E0.03456 ; perimeter
G1 X102.150 Y116.152 E0.00316 ; perimeter
G1 X101.512 Y116.009 E0.02050 ; perimeter
G1 X100.995 Y115.792 E0.01757 ; perimeter
G1 X100.952 Y115.800 E0.00139 ; perimeter
G1 X100.735 Y115.561 E0.01011 ; perimeter
G1 X100.511 Y115.491 E0.00739 ; perimeter
G1 X100.486 Y115.449 E0.00152 ; perimeter
G1 X100.125 Y115.222 E0.01339 ; perimeter
G1 X99.955 Y114.989 E0.00903 ; perimeter
G1 X99.625 Y114.755 E0.01266 ; perimeter
G1 X99.234 Y114.563 E0.01367 ; perimeter
G1 X99.070 Y114.374 E0.00784 ; perimeter
G1 X98.682 Y114.029 E0.01630 ; perimeter
G1 X98.365 Y113.822 E0.01186 ; perimeter
G1 X98.171 Y113.582 E0.00966 ; perimeter
G1 X97.330 Y112.781 E0.03642 ; perimeter
G1 X97.146 Y112.200 E0.01912 ; perimeter
G1 X96.599 Y111.964 E0.01868 ; perimeter
G1 X96.435 Y111.914 E0.00536 ; perimeter
G1 X96.189 Y111.733 E0.00957 ; perimeter
G1 X96.199 Y111.666 E0.00213 ; perimeter
G1 X96.037 Y110.902 E0.02448 ; perimeter
G1 X95.270 Y110.913 E0.02405 ; perimeter
G1 X95.027 Y110.668 E0.01082 ; perimeter
G1 X94.921 Y110.467 E0.00714 ; perimeter
G1 X94.630 Y110.138 E0.01377 ; perimeter
G1 X94.484 Y109.926 E0.00806 ; perimeter
G1 X94.258 Y109.714 E0.00972 ; perimeter
G1 X94.210 Y109.647 E0.00258 ; perimeter
G1 X94.108 Y109.388 E0.00873 ; perimeter
G1 X93.986 Y109.154 E0.00829 ; perimeter
G1 X93.949 Y108.869 E0.00900 ; perimeter
G1 X93.768 Y108.651 E0.00888 ; perimeter
G1 X93.720 Y108.511 E0.00465 ; perimeter
G1 X93.837 Y108.072 E0.01426 ; perimeter
G1 X93.437 Y107.765 E0.01582 ; perimeter
G1 X93.091 Y106.873 E0.03000 ; perimeter
G1 X92.963 Y106.726 E0.00612 ; perimeter
G1 X92.877 Y106.463 E0.00866 ; perimeter
G1 X92.713 Y106.330 E0.00662 ; perimeter
G1 X92.775 Y105.884 E0.01412 ; perimeter
G1 X92.466 Y105.505 E0.01536 ; perimeter
G1 X92.252 Y105.197 E0.01175 ; perimeter
G1 X92.136 Y104.892 E0.01023 ; perimeter
G1 X91.970 Y104.545 E0.01207 ; perimeter
G1 X91.944 Y104.301 E0.00767 ; perimeter
G1 X91.765 Y104.048 E0.00972 ; perimeter
G1 X91.490 Y103.806 E0.01150 ; perimeter
G1 X91.637 Y102.950 E0.02723 ; perimeter
G1 X90.974 Y102.778 E0.02146 ; perimeter
G1 X90.861 Y102.470 E0.01029 ; perimeter
G1 X90.646 Y102.308 E0.00843 ; perimeter
G1 X90.542 Y102.149 E0.00595 ; perimeter
G1 X90.327 Y101.923 E0.00978 ; perimeter
G1 X90.063 Y101.554 E0.01422 ; perimeter
G1 X89.812 Y101.279 E0.01168 ; perimeter
G1 X89.438 Y101.120 E0.01274 ; perimeter
G1 X89.325 Y100.813 E0.01025 ; perimeter
G1 X88.946 Y100.634 E0.01315 ; perimeter
G1 X88.893 Y100.589 E0.00218 ; perimeter
G1 X88.827 Y100.365 E0.00730 ; perimeter
G1 X88.008 Y99.214 E0.04429 ; perimeter
G1 X87.670 Y98.812 E0.01647 ; perimeter
G1 X87.462 Y98.214 E0.01985 ; perimeter
G1 X87.086 Y97.766 E0.01833 ; perimeter
G1 X87.152 Y97.600 E0.00559 ; perimeter
G1 X87.055 Y96.845 E0.02387 ; perimeter
G1 X86.941 Y96.300 E0.01748 ; perimeter
G1 X86.668 Y95.868 E0.01602 ; perimeter
G1 X86.546 Y95.574 E0.00997 ; perimeter
G1 X86.572 Y95.074 E0.01573 ; perimeter
G1 E-3.50000 F3600.00000 ; retract
G1 F8160.000
G1 X89.972 Y95.069 E-1.42500 ; wipe and retract
G1 E-0.07500 F3600.00000 ; retract
G1 X128.865 Y103.198 F10200.000 ; move to first perimeter point
G1 E5.00000 F2400.00000 ; unretract
G1 F1800.000
G1 X128.775 Y103.480 E0.00927 ; perimeter
G1 X128.787 Y103.642 E0.00507 ; perimeter
G1 X128.933 Y104.002 E0.01220 ; perimeter
G1 X128.711 Y104.105 E0.00767 ; perimeter
G1 X128.541 Y104.318 E0.00854 ; perimeter
G1 X128.417 Y104.411 E0.00486 ; perimeter
G1 X128.377 Y104.633 E0.00709 ; perimeter
G1 X127.921 Y105.540 E0.03183 ; perimeter
G1 X127.776 Y105.779 E0.00876 ; perimeter
G1 X127.711 Y105.974 E0.00647 ; perimeter
G1 X127.371 Y106.688 E0.02476 ; perimeter
G1 X127.343 Y106.855 E0.00532 ; perimeter
G1 X127.075 Y106.958 E0.00902 ; perimeter
G1 X127.084 Y107.321 E0.01138 ; perimeter
G1 X127.050 Y107.401 E0.00271 ; perimeter
G1 X126.976 Y107.569 E0.00577 ; perimeter
G1 X126.727 Y107.781 E0.01023 ; perimeter
G1 X126.739 Y108.055 E0.00861 ; perimeter
G1 X126.539 Y108.167 E0.00718 ; perimeter
G1 X126.620 Y108.526 E0.01153 ; perimeter
G1 X126.465 Y108.887 E0.01232 ; perimeter
G1 X126.500 Y109.149 E0.00830 ; perimeter
G1 X126.289 Y109.355 E0.00927 ; perimeter
G1 X126.141 Y109.606 E0.00912 ; perimeter
G1 X126.120 Y109.708 E0.00326 ; perimeter
G1 X126.069 Y109.802 E0.00336 ; perimeter
G1 X125.955 Y109.969 E0.00632 ; perimeter
G1 X125.739 Y110.192 E0.00976 ; perimeter
G1 X125.516 Y110.527 E0.01261 ; perimeter
G1 X125.325 Y110.745 E0.00909 ; perimeter
G1 X125.237 Y110.917 E0.00605 ; perimeter
G1 X124.949 Y111.213 E0.01296 ; perimeter
G1 X124.855 Y111.273 E0.00348 ; perimeter
G1 X124.591 Y111.240 E0.00833 ; perimeter
G1 X124.353 Y111.267 E0.00752 ; perimeter
G1 X124.194 Y111.500 E0.00885 ; perimeter
G1 X124.199 Y111.636 E0.00427 ; perimeter
G1 X124.120 Y111.894 E0.00844 ; perimeter
G1 X124.010 Y112.022 E0.00531 ; perimeter
G1 X123.690 Y112.259 E0.01246 ; perimeter
G1 X123.471 Y112.326 E0.00717 ; perimeter
G1 X123.109 Y112.484 E0.01240 ; perimeter
G1 X122.955 Y112.979 E0.01625 ; perimeter
G1 X122.037 Y113.858 E0.03987 ; perimeter
G1 X121.848 Y114.100 E0.00963 ; perimeter
G1 X121.522 Y114.300 E0.01200 ; perimeter
G1 X121.033 Y114.777 E0.02142 ; perimeter
G1 X120.736 Y115.016 E0.01194 ; perimeter
G1 X120.566 Y115.035 E0.00536 ; perimeter
G1 X120.424 Y115.129 E0.00536 ; perimeter
G1 X120.109 Y115.468 E0.01451 ; perimeter
G1 X119.846 Y115.640 E0.00984 ; perimeter
G1 X119.758 Y115.782 E0.00524 ; perimeter
G1 X119.707 Y115.822 E0.00203 ; perimeter
G1 X119.492 Y115.858 E0.00684 ; perimeter
G1 X119.220 Y116.008 E0.00972 ; perimeter
G1 X119.274 Y116.179 E0.00563 ; perimeter
G1 X119.234 Y116.176 E0.00125 ; perimeter
G1 X119.131 Y116.389 E0.00742 ; perimeter
G1 X119.072 Y116.327 E0.00269 ; perimeter
G1 X118.692 Y116.568 E0.01409 ; perimeter
G1 X118.529 Y116.600 E0.00523 ; perimeter
G1 X118.512 Y116.817 E0.00682 ; perimeter
G1 X118.442 Y116.753 E0.00297 ; perimeter
G1 X118.069 Y116.750 E0.01172 ; perimeter
G1 X118.001 Y116.813 E0.00289 ; perimeter
G1 X117.739 Y116.672 E0.00933 ; perimeter
G1 X117.489 Y116.747 E0.00818 ; perimeter
G1 X117.463 Y116.718 E0.00124 ; perimeter
G1 X117.166 Y116.670 E0.00943 ; perimeter
G1 X116.890 Y116.863 E0.01059 ; perimeter
G1 X116.666 Y116.624 E0.01027 ; perimeter
G1 X116.534 Y116.715 E0.00502 ; perimeter
G1 X116.367 Y116.547 E0.00744 ; perimeter
G1 X116.237 Y116.487 E0.00447 ; perimeter
G1 X115.629 Y116.486 E0.01907 ; perimeter
G1 X115.377 Y116.456 E0.00795 ; perimeter
G1 X114.604 Y116.462 E0.02426 ; perimeter
G1 X114.275 Y116.401 E0.01047 ; perimeter
G1 X114.105 Y116.423 E0.00539 ; perimeter
G1 X113.402 Y116.408 E0.02204 ; perimeter
G1 X112.790 Y116.320 E0.01938 ; perimeter
G1 X112.656 Y116.322 E0.00423 ; perimeter
G1 X112.486 Y116.199 E0.00657 ; perimeter
G1 X112.024 Y116.308 E0.01487 ; perimeter
G1 X111.292 Y116.247 E0.02302 ; perimeter
G1 X109.420 Y116.262 E0.05872 ; perimeter
G1 X108.541 Y116.235 E0.02756 ; perimeter
G1 X108.353 Y116.285 E0.00609 ; perimeter
G1 X108.148 Y116.294 E0.00644 ; perimeter
G1 X107.713 Y116.228 E0.01380 ; perimeter
G1 X107.379 Y116.302 E0.01073 ; perimeter
G1 X106.873 Y116.368 E0.01600 ; perimeter
G1 X106.141 Y116.433 E0.02302 ; perimeter
G1 X105.699 Y116.308 E0.01442 ; perimeter
G1 X105.279 Y116.454 E0.01393 ; perimeter
G1 X104.598 Y116.458 E0.02135 ; perimeter
G1 X104.480 Y116.493 E0.00387 ; perimeter
G1 X103.706 Y116.483 E0.02427 ; perimeter
G1 X103.271 Y116.842 E0.01766 ; perimeter
G1 X103.280 Y116.910 E0.00217 ; perimeter
G1 X103.166 Y116.996 E0.00447 ; perimeter
G1 X103.028 Y116.902 E0.00523 ; perimeter
G1 X102.879 Y116.867 E0.00482 ; perimeter
G1 X102.947 Y116.650 E0.00714 ; perimeter
G1 X102.358 Y116.499 E0.01904 ; perimeter
G1 X102.267 Y116.617 E0.00469 ; perimeter
G1 X102.025 Y116.751 E0.00866 ; perimeter
G1 X101.899 Y116.482 E0.00930 ; perimeter
G1 X101.397 Y116.370 E0.01615 ; perimeter
G1 X100.955 Y116.184 E0.01503 ; perimeter
G1 X100.827 Y116.209 E0.00407 ; perimeter
G1 X100.739 Y116.175 E0.00296 ; perimeter
G1 X100.645 Y116.022 E0.00564 ; perimeter
G1 X100.525 Y115.891 E0.00556 ; perimeter
G1 X100.260 Y115.807 E0.00874 ; perimeter
G1 X100.208 Y115.719 E0.00319 ; perimeter
G1 X99.863 Y115.502 E0.01278 ; perimeter
G1 X99.686 Y115.261 E0.00937 ; perimeter
G1 X99.432 Y115.080 E0.00978 ; perimeter
G1 X99.037 Y114.886 E0.01380 ; perimeter
G1 X98.945 Y114.819 E0.00357 ; perimeter
G1 X98.797 Y114.635 E0.00740 ; perimeter
G1 X98.452 Y114.329 E0.01445 ; perimeter
